resources/google-view-image-color.svg

<svg width="16" height="16">
  <path fill="#EA4335" d="m2.556 2.556-1.1-1.1c.28-.282.669-.456 1.1-.456H8v1.556H2.556zm7-1.556v1.556h2.789L9.006 5.894l.55.55L15 1H9.556z"/>
  <path fill="#4285F4" d="m14.543 14.543-1.099-1.099V8H15v5.444c0 .428-.175.817-.457 1.099zm-2.308-2.913L9.512 8l-.66.852 2.778 2.778h.605zM15 6.444V1L9.556 6.444l.55.55 3.339-3.339v2.789H15z"/>
  <path fill="#FBBC05" d="m2.556 13.444-1.1 1.1a1.55 1.55 0 0 1-.456-1.1V2.556c0-.429.174-.818.456-1.1l1.1 1.1v10.888zm3.327-4.537L3.765 11.63h.605l2.061-2.061-.548-.662z"/>
  <path fill="#34A853" d="M2.556 13.444h10.889l1.099 1.099a1.555 1.555 0 0 1-1.1.457H2.556c-.431 0-.819-.174-1.1-.456l1.1-1.1zm3.876-3.876L4.37 11.63h7.259L8.851 8.852l-1.456 1.877-.963-1.161z"/>
  <path fill="#212121" d="m10.106 6.994-1.1-1.1.092-.092 1.008 1.008 3.339-3.339v.184l-3.339 3.339zm2.607-4.623H9.556v.184h2.973l.184-.184zM3.909 11.63h8.188l-.138-.184H4.052l-.143.184zM8 2.371H2.556v.184H8v-.184zm5.444 4.073H15V6.26h-1.556v.184zm0 8.372H2.556c-.864 0-1.556-.7-1.556-1.556v.184C1 14.3 1.692 15 2.556 15h10.889C14.3 15 15 14.3 15 13.444v-.184c0 .856-.7 1.556-1.556 1.556z" opacity=".2"/>
  <path fill="#f4f4f7" d="m9.19 5.894-.092-.092 3.247-3.247h.184L9.19 5.894zM9.512 8l-2.117 2.728-1.512-1.821-2.118 2.723h.143l1.974-2.538 1.512 1.821 2.117-2.728 2.584 3.445h.138L9.512 8zm-6.956 5.629h10.889v-.184H2.556v.184zM9.556 1v.184H15V1H9.556zm-7 .184H8V1H2.556C1.692 1 1 1.7 1 2.556v.184c0-.856.692-1.556 1.556-1.556zm10.888 7H15V8h-1.556v.184z" opacity=".2"/>
  <radialGradient id="google-view-image-color_svg__a" cx="1" cy="17" r="19.799" gradientTransform="matrix(1 0 0 -1 0 18)" gradientUnits="userSpaceOnUse">
    <stop offset="0" stop-color="#f4f4f7" stop-opacity=".1"/>
    <stop offset="1" stop-color="#f4f4f7" stop-opacity="0"/>
  </radialGradient>
  <path fill="url(#google-view-image-color_svg__a)" d="M7.395 10.728 9.512 8l2.722 3.63H3.765l2.117-2.722 1.513 1.82zm6.049 2.716H2.556V2.556H8V1H2.556C1.692 1 1 1.7 1 2.556v10.889C1 14.3 1.692 15 2.556 15h10.889C14.3 15 15 14.3 15 13.444V8h-1.556v5.444zM9.556 1v1.556h2.789L9.006 5.894l1.1 1.1 3.339-3.339v2.789H15V1H9.556z"/>
</svg>

<svg xmlns="http://www.w3.org/2000/svg" width="16" height="16" viewBox="0 0 16 16">
    <path fill="#EA4335"
        d="M2.556,2.556l-1.1-1.1C1.736,1.174,2.125,1,2.556,1H8v1.556H2.556z M9.556,1v1.556h2.789L9.006,5.894l0.55,0.55	L15,1H9.556z" />
    <path fill="#4285F4"
        d="M14.543,14.543l-1.099-1.099V8H15v5.444C15,13.872,14.825,14.261,14.543,14.543z M12.235,11.63L9.512,8	L8.852,8.852l2.778,2.778H12.235z M15,6.444V1L9.556,6.444l0.55,0.55l3.339-3.339v2.789H15z" />
    <path fill="#FBBC05"
        d="M2.556,13.444l-1.1,1.1C1.174,14.262,1,13.873,1,13.444V2.556c0-0.429,0.174-0.818,0.456-1.1l1.1,1.1V13.444z M5.883,8.907L3.765,11.63H4.37l2.061-2.061L5.883,8.907z" />
    <path fill="#34A853"
        d="M2.556,13.444h10.889l1.099,1.099C14.261,14.825,13.872,15,13.444,15H2.556c-0.431,0-0.819-0.174-1.1-0.456	L2.556,13.444z M6.432,9.568L4.37,11.63h7.259L8.851,8.852l-1.456,1.877L6.432,9.568z" />
    <path fill="#212121"
        d="M10.106,6.994l-1.1-1.1l0.092-0.092l1.008,1.008l3.339-3.339v0.184L10.106,6.994z M12.713,2.371	H9.556v0.184h2.973L12.713,2.371z M3.909,11.63h8.188l-0.138-0.184H4.052L3.909,11.63z M8,2.371H2.556v0.184H8V2.371z M13.444,6.444	H15V6.26h-1.556V6.444z M13.444,14.816H2.556C1.692,14.816,1,14.116,1,13.26v0.184C1,14.3,1.692,15,2.556,15h10.889	C14.3,15,15,14.3,15,13.444V13.26C15,14.116,14.3,14.816,13.444,14.816z"
        opacity=".2" />
    <path fill="#f4f4f7"
        d="M9.19,5.894L9.098,5.802l3.247-3.247h0.184L9.19,5.894z M9.512,8l-2.117,2.728L5.883,8.907	L3.765,11.63h0.143l1.974-2.538l1.512,1.821l2.117-2.728l2.584,3.445h0.138L9.512,8z M2.556,13.629h10.889v-0.184H2.556V13.629z M9.556,1v0.184H15V1H9.556z M2.556,1.184H8V1H2.556C1.692,1,1,1.7,1,2.556V2.74C1,1.884,1.692,1.184,2.556,1.184z M13.444,8.184H15	V8h-1.556V8.184z"
        opacity=".2" />
    <radialGradient id="finish" cx="1" cy="17" r="19.799" gradientTransform="matrix(1 0 0 -1 0 18)"
        gradientUnits="userSpaceOnUse">
        <stop offset="0" style="stop-color:#f4f4f7;stop-opacity:.1" />
        <stop offset="1" style="stop-color:#f4f4f7;stop-opacity:0" />
    </radialGradient>
    <path style="fill:url(#finish)"
        d="M7.395,10.728L9.512,8	l2.722,3.63H3.765l2.117-2.722L7.395,10.728z M13.444,13.444H2.556V2.556H8V1H2.556C1.692,1,1,1.7,1,2.556v10.889	C1,14.3,1.692,15,2.556,15h10.889C14.3,15,15,14.3,15,13.444V8h-1.556V13.444z M9.556,1v1.556h2.789L9.006,5.894l1.1,1.1	l3.339-3.339v2.789H15V1H9.556z" />
</svg>
